X:1
T:Piano Sonata No. 14, Op.27, No. 2
T:Piano Sonata No. 14, Op. 27, No. 2
T:Third Movement
T:Ludwig van Beethoven
C:Ludwig van Beethoven
%%score { ( 1 4 5 6 ) | ( 2 3 7 8 ) }
L:1/8
Q:1/4=188
M:4/4
K:E
V:1 bass nm="Piano" snm="Pno."
V:4 bass 
V:5 bass 
V:6 bass 
V:2 bass 
V:3 bass 
V:7 bass 
V:8 bass 
V:1
"^Presto agitato"!p! z/ G,,/C,/E,/ G,/C,/E,/G,/ C/E,/G,/C/[K:treble] E/G,/C/E/ |: %1
 G/C/E/G/ c/E/G/c/ e/G/c/e/ .[Gceg].[Gceg] | %2
[K:bass]!p! z/ G,,/^B,,/D,/ G,/B,,/D,/G,/ ^B,/D,/G,/B,/[K:treble] D/G,/^B,/D/ | %3
 G/^B,/D/G/ ^B/D/G/B/ d/G/B/d/ .[GBdg].[GBdg] | %4
[K:bass]!p! z/ C,/^E,/G,/ C/E,/G,/C/[K:treble] ^E/G,/C/E/ G/C/E/G/ | %5
 c/^E/G/c/ ^e/G/c/e/ g/c/e/g/ .[cegc'].[cegc'] | %6
[K:bass]!p! z/ C,/F,/A,/[K:treble] .C/C/F/A/ .c/c/f/a/ .[cfc'].[cfc'] | %7
[K:bass]!p! z/ C,/E,/^^F,/[K:treble] C/C/E/^^F/ c/c/e/^^f/!f!!<(! .[cfc'].[cfc']!<)! | %8
 [^Bg^b] G/g/ G/g/!f!^A/g/ ^B/g/c/g/ d/g/B/g/ | d/g/c/g/ f/g/e/g/ d/g/c/g/ ^B/g/=A/^^f/ | %10
 G/g/G/g/ G/g/^A/g/ ^B/g/c/g/ d/g/B/g/ | d/g/c/g/ f/g/e/g/ d/g/c/g/ ^B/g/=A/^^f/ | %12
!<(! G/g/A/^^f/ G/g/A/f/ G/g/A/f/ G/g/A/f/ | .[Gg]2!<)![Q:1/4=94] !fermata!G,6 | %14
[K:bass]!p![Q:1/4=188] z/ G,,/C,/E,/ G,/C,/E,/G,/ C/E,/G,/C/[K:treble] E/G,/C/E/ | %15
 G/C/E/G/ c/E/G/c/ e/e/g/c'/ .[ee'].[ee'] | %16
[K:bass]!p! z/ E,/^^F,/C/ E/F,/C/E/[K:treble] ^^F/C/E/F/ c/E/F/c/ | %17
 e/^^F/c/e/ ^^f/c/e/f/ c'/e/f/c'/ .[ee'].[ee'] | %18
[K:bass]!p! z/!<(! D,/^A,/C/ D/A,/C/D/[K:treble] ^A/C/D/A/ c/D/A/c/ | %19
 d/^A/c/d/ ^a/c/d/a/ c'/a/d/A/ a/d/c/!<)!!f!A/ |!p! B2 d4 B>G |{/^^FG^A} G2 ^^F2- FFd>F | %22
 ^A2 G2- GGd>G | B2 ^A2- AAd>A | .B!<(! [dd']2 [dd']- [dd'].[dd'].[Bb].[Gg] | %25
 .[Gg] [^^F^^f]2 [Ff]- [Ff].[Ff].[dd'].[Ff] | .[^A^a] [Gg]2 [Gg]- [Gg].[Gg].[dd'].[Gg] | %27
 .[Bb] [^A^a]2 [Aa]- [Aa].[Aa].[dd'].[Aa]!<)! | [^B^b]4 [cc']4 |!f! (5:4:5[^A^a]/b/a/g/a/ [=B=b]6 | %30
 [Gg]4 [=A=a]4 |!f! (5:4:5[^^F^^f]/g/f/^e/f/ [Gg]6 |!ff! [=Ace=a]4- [Acea]/!p!e/f/g/ a/b/c'/b/ | %33
 a/e/f/g/ a/b/c'/b/ a/e/f/g/ a/b/c'/b/ | %34
!<(! a/e/f/g/ a/b/c'/=d'/ e'/^d'/f'/e'/ =d'/c'/b/!<)!!f!a/ |!p! g4 !trill(!T^a2- !trill)!a g/a/ | %36
 .g2!ff! [=A,CE=A]2- [A,CEA]/!p!E/F/G/ A/B/c/B/ | A/E/F/G/ A/B/c/B/ A/E/F/G/ A/B/c/B/ | %38
 A/E/F/!<(!G/ A/B/c/B/ A/E/F/G/ A/B/c/B/!<)! |!f! A/!mp!E/F/G/ A/B/c/=d/ e/f/g/a/ b/c'/=d'/^d'/ | %40
!f! !>![ee']4!f! !>![Gg]4 |!f! !>![Bb]4 !>![^^F,C^^F]4 | %42
 !>![G,B,G]!p! .[DB].[DB].[DB] .[DB].[DB].[D^A].[DG] | %43
 .[D^^F] .[Fd].[Fd].[Fd] .[Fd].[Fd].[Gd].[^Ad] | .[Bd] .[DB].[DB].[DB] .[DB].[DB].[D^A].[DG] | %45
 .[D^^F] .[Fd].[Fd].[Fd] .[Fd].[Fd].[Gd].[^Ad] | .[Bd] .[Bd][Bd][GB] z .[ce][ce][Gc] | %47
 z .[Bd][Bd][GB] z .[^Ad][Ad][^^FA] | .[GB]!p! [Bdb]!<(![Bdb][Bdb] [Bdb][Bdb][^Ac^a][GBg] | %49
 [^^F^A^^f]!<)!!f! [efe'][efe'][efe'] [efe'][efe'][dfd'][cfc'] | %50
 [Bgb]!p! [Bdb]!<(![Bdb][Bdb] [db][Bdb][^Ac^a][GBg] | %51
 [^^F^A^^f]!<)!!f! [efe'][efe'][efe'] [efe'][efe'][dfd'][cfc'] | %52
 [Bgb]!p! .[gb][gb][bd'] z .[gc'][gc'][c'e'] | z .[gb][gb][bd'] z .[^^f^a][fa][ad'] | %54
 z .[db][db]!<(![gd'] z .[c=a][ca][ec'] | z .[Bg][Bg]!<)!!f![db] z!>(! .[^A^^f][Af][c^a]!>)! | %56
!p! [Bg]2 z2 z2 B>G | ^^F2 [CFd]2 [CFd]2 [CFd]2 | d6 b>g | ^^f2 [cfd']2 [cfd']2 [cfd']2 | %60
 !arpeggio![Bgd']4 !arpeggio![c^^fd']4 | !arpeggio![Bgd']4 !arpeggio![c^^fd']4 | %62
 B,/G/!<(!D/G/ B,/G/D/G/ B,/G/D/G/ B,/G/D/G/ | ^B,/F/D/F/ B,/F/D/F/ B,/F/D/F/ B,/F/D/F/!<)! |1 %64
[K:bass]!f! [E,G,CE]/!p! G,,/C,/E,/ G,/C,/E,/G,/ C/E,/G,/C/[K:treble] E/G,/C/E/ :|2 %65
[K:bass]!f! [^E,G,C^E]/!p! C,/E,/G,/ C/E,/G,/C/[K:treble] ^E/G,/C/E/ G/C/E/G/ || %66
 c/^E/G/c/ ^e/G/c/e/ g/c/e/g/ .[cegc'].[cegc'] | %67
[K:bass]!p! z/ C,/^E,/G,/ C/E,/G,/C/[K:treble] ^E/G,/C/E/ G/C/E/G/ | %68
 c/^E/G/c/ ^e/G/c/e/ g/c/e/g/ .[cegc'].[cegc'] | %69
[K:bass]!p! z/ C,/F,/A,/[K:treble] .C/C/F/A/ .c/c/f/a/ .[cfac'].[cfac'] | %70
[K:bass]!p! z/ C,/G,/B,/[K:treble] C/C/G/B/ c/c/g/b/!f!!<(! .[cgbc'].[cgbc']!<)! | %71
 .[cfac'] z!p! c4 A>F |{/^EFG} F2 ^E2- EEc>E | G2 F2- FFc>F | A2 G2- GGc>G | %75
 A/!p! c/A/c/ F/c/A/c/ F/c/A/c/ F/c/A/c/ | G/c/B/c/ G/c/B/c/ G/c/B/c/ G/c/B/c/ | %77
 F/c/A/c/ F/c/A/c/ F/c/A/c/ F/c/A/c/ | F/=d/A/d/!<(! F/d/A/d/ A/d/=c/d/ B/d/c/d/!<)! | %79
!f! =G/!p! =d/B/d/ G/d/B/d/ G/d/B/d/ G/d/B/d/ | A/=d/=c/d/ A/d/c/d/ A/d/c/d/ A/d/c/d/ | %81
 =G/=d/B/d/ G/d/B/d/ G/d/B/d/ G/d/B/d/ | ^G/=d/B/d/ G/c/B/c/ G/d/B/d/ G/c/B/c/ | %83
 F/c/A/c/ F/c/A/c/ F/f/A/f/ F/f/A/f/ | F/f/[G^d]/f/ F/f/[Gd]/f/ F/f/[Gd]/f/ F/f/[Gd]/f/ | %85
 E/e/c/e/ E/e/c/e/ E/e/c/e/ E/e/c/e/ | D/d/c/d/ D/d/c/d/ D/d/c/d/ D/d/c/d/ |!f! [D^Bd]2 G4 AG!p! | %88
 F2 GF E2 FE | D2 ED C2 DC | ^B,4 C4 | D2 g2- g.g.a.g | %92
!p!!<(! .f.[Acf].[Bdg].[Acf] .[GBe].[GBe].[Acf].[GBe] | %93
 .[FAd].[FAd].[GBe].[FAd] .[EGc].[EGc].[FAd]!<)!!f!.[EGc] |!p!!<(! [DF^B]4 [CEc]4!<)! | %95
!f!!>(!{/^B,F} [Fd]6!>)!!p! [CEc]2 |!<(! [DF^B]2 [DFB]2 [CEc]2 [CEc]2!<)! | %97
!f!!>(!{/^B,F} [Fd]6!>)!!p! [CE]c |!<(! [DF]^B[DF]B [CE]c[CE]c | %99
 [^B,F]d!<)!!mf![B,F]!>(!d [CE]c[CE]c!>)! | [A,CDA]8 | [G,^B,DG]8 | %102
[K:bass]!p! z/ G,,/C,/E,/ G,/C,/E,/G,/ C/E,/G,/C/[K:treble] E/G,/C/E/ | %103
 G/C/E/G/ c/E/G/c/ e/G/c/e/ .[Gceg].[Gceg] | %104
[K:bass]!p! z/ G,,/^B,,/D,/ G,/B,,/D,/G,/ ^B,/D,/G,/B,/[K:treble] D/G,/^B,/D/ | %105
 G/^B,/D/G/ ^B/D/G/B/ d/G/B/d/ .[GBdg].[GBdg] | %106
[K:bass]!p! z/ C,/^E,/G,/ C/E,/G,/C/[K:treble] ^E/G,/C/E/ G/C/E/G/ | %107
 c/^E/G/c/ ^e/G/c/e/ g/c/e/g/ .[cegc'].[cegc'] | %108
[K:bass]!p! z/ C,/F,/A,/[K:treble] .C/C/F/A/ .c/c/f/a/ .[cfc'].[cfc'] | %109
[K:bass]!p! z/ C,/E,/^^F,/[K:treble] C/C/E/^^F/ c/c/e/^^f/!f!!<(! .[cfc'].[cfc']!<)! | %110
 [^Bg^b] G/g/ G/g/!f!^A/g/ ^B/g/c/g/ d/g/B/g/ | d/g/c/g/ f/g/e/g/ d/g/c/g/ ^B/g/=A/^^f/ | %112
 G/g/G/g/ G/g/^A/g/ ^B/g/c/g/ d/g/B/g/ | d/g/c/g/ f/g/e/g/ d/g/c/g/ ^B/g/=A/^^f/ | %114
!<(! G/g/A/^^f/ G/g/A/f/ G/g/A/f/ G/g/A/f/ | .[Gg]2!<)![Q:1/4=94] !fermata!G,6 | %116
!p![Q:1/4=188] z2 G4 E>C |{/^B,CD} C2 B,2- B,B,G>B, | D2 C2- CCG>C | E2 D2- DDG>D | %120
 .E!<(! [Gg]2 [Gg]- [Gg].[Gg].[Ee].[Cc] | .[Cc] [^B,^B]2 [B,B]- [B,B].[B,B].[Gg].[B,B] | %122
 .[Dd] [Cc]2 [Cc]- [Cc].[Cc].[Gg].[Cc] | .[Ee] [Dd]2 [Dd]- [Dd].[Dd].[Gg].[Dd]!<)! | %124
 [^E^e]4 [Ff]4 |!f! (5:4:5[Dd]/e/d/c/d/ [=E=e]6 | [Cc]4 [=D=d]4 | %127
!f! (5:4:5[^B,^B]/c/B/^A/B/ [Cc]6 |!ff! [=DFA=d]4- [DFAd]/!p!A/B/c/ d/e/f/e/ | %129
 =d/A/B/c/ d/e/f/e/ d/A/B/c/ d/e/f/e/ |!<(! =d/A/B/c/ d/e/f/=g/ a/^g/b/a/ =g/f/e/!<)!!f!d/ | %131
!p! c4 !trill(!T^d3 c/d/ | %132
 .c2[K:bass]!ff! [=D,F,A,=D]2- [D,F,A,D]/[K:treble]!p! A,/B,/C/ =D/E/F/E/ | %133
 =D/A,/B,/C/!<(! D/E/F/E/ D/A,/B,/C/ D/E/F/E/ | =D/A,/B,/C/ D/E/F/=G/ A/B/c/=d/ e/f/=g/^g/!<)! | %135
!f! !>![Aa]4 !>![Cc]4 | !>![Ee]4[K:bass] !>![^B,,F,^B,]4 | %137
!f! !>![C,E,C][K:treble] .[G,E].[G,E].[G,E] .[G,E].[G,E].[G,D].[G,C] | %138
 [G,^B,] .[B,G].[B,G].[B,G] .[B,G].[B,G].[CG].[DG] | %139
 [EG] .[G,E].[G,E].[G,E] .[G,E].[G,E].[G,D].[G,C] | %140
 [G,^B,] .[B,G].[B,G].[B,G] .[B,G].[B,G].[CG].[DG] | .[EG] .[EG][EG][CE] z .[FA][FA][CF] | %142
 z .[EG][EG][CE] z .[DG][DG][^B,D] | [CE]!p! .[EGe].[EGe].[EGe] .[EGe].[EGe].[DFd].[CEc] | %144
 [^B,D^B]!f! .[Bd^b].[Bdb].[Bdb] .[Bdb].[Bdb].[cec'].[dfd'] | %145
 [ege']!p! .[EGe].[EGe].[EGe] .[EGe].[EGe].[DFd].[CEc] | %146
 [^B,D^B]!f! .[Bd^b].[Bdb].[Bdb] .[Bdb].[Bdb].[cec'].[dfd'] | %147
 .[ege']!p! .[gc'][gc'][eg] z .[ac'][ac'][fa] | z .[eg][eg][ce] z .[dg][dg][^Bd] | %149
 z .[cg]!<(![cg][Ge] z .[Af][Af][F=d] | z .[Ge][Ge]!<)!!f![Ec] z!>(! .[F^d][Fd][D^B]!>)! | %151
!p! [Ec]2 z2 z2 E>C | ^B,2 [F,B,G]2 [F,B,G]2 [F,B,G]2 | !arpeggio![E,CG]6 e>c | %154
 ^B2 [FBg]2 [FBg]2 [FBg]2 | !arpeggio![Ecg]4 !arpeggio![F^Bg]4 | %156
 !arpeggio![Ecg]4 !arpeggio![F^Bg]4 |[K:bass]!<(! E,/C/G,/C/ E,/C/G,/C/ E,/C/G,/C/ E,/C/G,/C/ | %158
 [C,^E,]/C/G,/C/ [C,E,]/C/G,/C/ [C,E,]/C/G,/C/ [C,E,]/C/G,/C/!<)! | %159
!f! [C,F,A,C]/!p!C,/F,/A,/ C/F,/A,/C/[K:treble] F/A,/C/F/ A/C/F/A/ | %160
 c/F/A/c/ f/A/c/f/ a/c/f/a/ .[cfac'].[cfac'] | %161
[K:bass]!p! z/ C,/E,/G,/ C/E,/G,/C/[K:treble] E/G,/C/E/ G/C/E/G/ | %162
 c/E/G/c/ e/G/c/e/ g/c/e/g/ .[cegc'].[cegc'] | %163
[K:bass] z C,- [C,E,F,A,C]2- [C,E,F,A,C][K:treble] C- [CEFAc]2- | %164
 [CEFAc] c-[Q:1/4=94] !fermata![cefac']6 | %165
[K:bass][Q:1/4=188] z A,,- [A,,B,,D,F,=A,]2- [A,,B,,D,F,A,][K:treble] A,- [A,-B,D-F-A-]2 | %166
 [A,^B,DFA]/A/-^B/-d/-[Q:1/4=94] !fermata![ABda]6 | %167
[Q:1/4=188] z/!p! G/E/G/ C/G/E/G/ C/G/E/G/ C/G/E/G/ | D/G/F/G/ D/G/F/G/ D/G/F/G/ D/G/F/G/ | %169
 C/G/E/G/ C/G/E/G/ C/G/E/G/ C/G/E/G/ | ^B,/G/F/G/ B,/G/F/G/ B,/G/F/G/ B,/G/F/G/ | %171
!p! .[CEG] z!p! [Gg]4 [Ee]>[Cc] | [Cc]2 [^B,^B]2- [B,B][B,B][Gg]>[B,B] | %173
 [Dd]2 [Cc]2- [Cc][Cc][Gg]>[Cc] | [Ee]2 [Dd]2- [Dd][Dd][Gg]>[Dd] | %175
!<(! [Ff][Ee].[cc'].[Ee] [Ff][^E^e].[cc'].[Ee] | [Gg][Ff].[cc'].[Ff] [Aa][Gg].[cc'].[Gg]!<)! | %177
!f! (3afc (3AFC (3AFC x2 | x4 F/A/c/f/ a/f/c/A/ |!f! (3af=d (3AF=D (3AFD x2 | %180
 x4 F/A/=d/f/ a/f/d/A/ |!f! (3c'^a^^f (3ec^A (3ecA ^^F/E/C/^A,/ | %182
 E/C/[I:staff +1]^A,/^^F,/ E,/C,/E,/^F,/ (6:4:6A,/[I:staff -1]C/E/^^F/^A/c/ (6:4:6e/^^f/^a/c'/a/e/ | %183
!f! (3e'c'g (3ecG (3ecG !>!E/c/G/E/ | !>!C/G/E/C/ x2 x4 |!mp!!<(! x8 | %186
 ^B,/C/^^C/D/ (5:4:5E/^E/F/^^F/G/ (5:4:5A/^A/=B/^B/c/ (3=d/^d/=e/^e/4f/4^^f/4g/4!<)! |!f! Ta8 | %188
{/a} gfedfc[Q:1/4=144]^Bd |AGF!>(!AED[Q:1/4=112]FC |^B,D[K:bass]A,G,F,A,[Q:1/4=96]E,D, | %191
F,C,^B,,[Q:1/4=80] .D,2 .A,,2 .G,,2!>)! |!p![Q:1/4=80]"^Adagio" ^^F,,8 |!pp! G,,8 | %194
[Q:1/4=188]"^Tempo I"!p! C,2 z2 z2[K:treble] E>C | ^B,2 [F,B,G]2 [F,B,G]2 [F,B,G]2 | %196
 !arpeggio![E,CG]6 e>c | ^B2 [FBg]2 [FBg]2 [FBg]2 | !arpeggio![Ecg]4!<(! !arpeggio![F^Bg]4 | %199
 !arpeggio![Ecg]4 !arpeggio![F^Bg]4!<)! |!f! [Ecg]/E/G/c/ e/G/c/e/ g/c/e/g/ c'/e/g/c'/ | %201
 e'/!f!c'/g/e/ c'/g/e/c/ g/e/c/G/ e/c/G/E/ | c/G/E/C/ G/E/C/G,/ E/C/G,/E,/ C/G,/E,/G,/ | %203
 x4!ff! .[cegc']2 z2 | .[CEGc]2 z2 z4 |] %205
V:2
!mp! .C,,.G,,.C,,.G,, .C,,.G,,.C,,.G,, |: .C,,.G,,.C,,.G,, .C,,.G,,!ped!.[C,,C,].G,,!ped-up! | %2
!mp! .^B,,,.G,,.B,,,.G,, .B,,,.G,,.B,,,.G,, | %3
 .^B,,,.G,,.B,,,.G,, .B,,,.G,,!ped!.[B,,,^B,,].G,,!ped-up! | %4
!mp! .B,,,.G,,.B,,,.G,, .B,,,.G,,.B,,,.G,, | %5
 .B,,,.G,,.B,,,.G,, .B,,,.G,,!ped!.[B,,,B,,].G,,!ped-up! | %6
!mp! .A,,,.A,,.A,,,.A,, .A,,,.A,,.A,,,.A,, | %7
!mp! .A,,,.A,,.A,,,.A,, .A,,,.A,,!ped!.A,,,.A,,!ped-up! | [G,,,G,,] ^B,B,C DEFD | FEAG FEDC | %10
 ^B,B,B,C DEFD | FE!ped!AG!ped-up! FEDC | .[G,^B,].[G,C].[G,B,].[G,C] .[G,B,].[G,C].[G,B,].[G,C] | %13
 .[G,^B,]2!ped! !fermata![G,,,G,,]6!ped-up! |!mp! .C,,.G,,.C,,.G,, .C,,.G,,.C,,.G,, | %15
 .C,,.G,,.C,,.G,, .C,,.G,,!ped!.[C,,C,].G,,!ped-up! |!mp! .^A,,,.C,.^A,,.C, .A,,.C,.A,,.C, | %17
 .^A,,.C,.A,,.C, .A,,.C,.[^A,,,A,,].C, |!mp! .^^F,,,.D,.^^F,,.D, .F,,.D,.F,,.D, | %19
 .^^F,,.D,.F,,.D, .F,,.D,.F,,.D, | %20
!pp! G,,/D,/B,,/D,/!ped! G,,/D,/B,,/D,/ G,,/D,/B,,/D,/!ped-up! G,,/D,/B,,/D,/ | %21
!ped! ^A,,/D,/C,/D,/!ped-up! A,,/D,/C,/D,/ A,,/D,/C,/D,/ A,,/D,/C,/D,/ | %22
!ped! B,,/D,/B,,/D,/!ped-up! B,,/D,/B,,/D,/ B,,/D,/B,,/D,/ B,,/D,/B,,/D,/ | %23
!ped! ^^F,,/D,/F,,/D,/!ped-up! F,,/D,/F,,/D,/ F,,/D,/F,,/D,/ F,,/D,/F,,/D,/ | %24
 G,,/D,/!ped!!<(!B,,/D,/ G,,/D,/B,,/D,/!ped-up! G,,/D,/B,,/D,/ G,,/D,/B,,/D,/ | %25
 ^A,,/D,/!ped!C,/D,/ A,,/D,/C,/D,/!ped-up! A,,/D,/C,/D,/ A,,/D,/C,/D,/ | %26
 B,,/D,/!ped!B,,/D,/ B,,/D,/B,,/D,/!ped-up! B,,/D,/B,,/D,/ B,,/D,/B,,/D,/ | %27
 ^^F,,/D,/!ped!F,,/D,/ F,,/D,/F,,/D,/!ped-up! F,,/D,/F,,/D,/ F,,/D,/F,,/D,/!<)! | %28
!f!!ped! ^F,,/D,/G,,/D,/ F,,/D,/!ped-up!G,,/D,/!ped! E,,/C,/G,,/C,/ E,,/C,/!ped-up!G,,/C,/ | %29
!ped! E,,/C,/F,,/C,/!ped-up!!ped! D,,/B,,/F,,/B,,/ D,,/B,,/F,,/B,,/ D,,/B,,/F,,/B,,/!ped-up! | %30
!ped! =D,,/B,,/E,,/B,,/ D,,/B,,/E,,/!ped-up!B,,/!ped! C,,/A,,/E,,/A,,/ C,,/A,,/E,,/!ped-up!A,,/ | %31
!ped! C,,/^A,,/^D,,/A,,/!ped-up! B,,,/!ped!G,,/D,,/G,,/ B,,,/G,,/D,,/G,,/ B,,,/G,,/D,,/G,,/!ped-up! | %32
!ped! [C,,E,,=A,,C,]4- [C,,E,,A,,C,]!ped-up! z z2 |[K:treble] [CEA]2 z2 [CEA]2 z2 | %34
 [CEA]2 [CEA]2 [CEA]2 [CEA]2 |!ped! D/B/G/B/ D/B/G/B/!ped-up!!ped! D/c/^^F/c/ D/c/F/c/!ped-up! | %36
 .[EGB]2!ped![K:bass] [C,,E,,=A,,C,]2- [C,,E,,A,,C,]!ped-up! z z2 | z2 .[C,E,A,]2 z2 .[C,E,A,]2 | %38
"^cresc." z .[C,E,A,] z .[C,E,A,] z .[C,E,A,] z .[C,E,A,] |!ped! [C,E,A,]2!ped-up! z2 z4 | %40
!ped! C,/A,/E,/A,/ C,/A,/E,/!ped-up!A,/!ped! ^^C,/B,/^E,/B,/ C,/B,/E,/!ped-up!B,/ | %41
!ped! D,/B,/G,/B,/ D,/B,/G,/!ped-up!B,/!f!!ped! D,,/D,/^^C,/D,/ C,/D,/C,/!ped-up!D,/ | %42
!f! !>!G,, .G,.G,.G, .G,.G,.^A,.B, | .[D,C] .[CD].[CD].[CD] .[CD].[CD].[B,D].[^A,D] | %44
 .[G,,G,] .G,.G,.G, .G,.G,.^A,.B, | .[D,C] .[CD].[CD].[CD] .[CD].[CD].[B,D].[^A,D] | %46
 .G,, .[G,B,]!ped![G,B,][B,D]!ped-up! .C, .[G,C]!ped![G,C][CE]!ped-up! | %47
 .D, .[G,B,]!ped![G,B,][B,D]!ped-up! .D, .[^^F,^A,]!ped![F,A,][A,D]!ped-up! | %48
 .[G,,,G,,] [G,,D,][G,,D,][G,,D,] [G,,D,][G,,D,][^A,,D,][B,,D,] | %49
!ped! [D,,C,D,] [D,C]!ped-up![D,C][D,C] [D,C][D,C][D,B,][D,^A,] | %50
!ped! [G,,,G,,] [G,,D,]!ped-up![G,,D,][G,,D,] [G,,D,][G,,D,][^A,,D,][B,,D,] | %51
!ped! [D,,C,D,] [D,C]!ped-up![D,C][D,C] [D,C][D,C][D,B,][D,^A,] | %52
 [G,,G,] .[B,D]!ped![B,D][G,B,]!ped-up! .C, .[CE]!ped![CE][G,C]!ped-up! | %53
 D, .[B,D]!ped![B,D][G,B,]!ped-up! .C, .[^A,D]!ped![A,D][^^F,A,]!ped-up! | %54
 .B,,[K:treble] .[DG]!ped![DG][B,D]!ped-up![K:bass] .C,[K:treble] .[E=A]!ped![EA][CE]!ped-up! | %55
[K:bass] .D,[K:treble] .[DG]!ped![DG][B,D]!ped-up![K:bass] .D,[K:treble] .[C^^F]!ped![CF][^A,C]!ped-up! | %56
[K:bass]!p!!ped! G,,/G,/D,/G,/ G,,/G,/D,/G,/ G,,/G,/D,/G,/ G,,/G,/D,/G,/!ped-up! | %57
!ped! G,,/^A,/D,/A,/ G,,/A,/D,/A,/ G,,/A,/D,/A,/ G,,/A,/D,/A,/!ped-up! | %58
!ped! G,,/G,/D,/G,/ G,,/G,/D,/G,/ G,,/G,/D,/G,/ G,,/G,/D,/G,/!ped-up! | %59
!ped! G,,/^A,/D,/A,/ G,,/A,/D,/A,/ G,,/A,/D,/A,/ G,,/A,/D,/A,/!ped-up! | %60
!ped! G,,/G,/D,/G,/ G,,/G,/D,/G,/!ped-up!!ped! G,,/^A,/D,/A,/ G,,/A,/D,/A,/!ped-up! | %61
!ped! G,,/G,/D,/G,/ G,,/G,/D,/G,/!ped-up!!ped! G,,/^A,/D,/A,/ G,,/A,/D,/A,/!ped-up! | %62
"^cresc." G,,/G,/D,/G,/ G,,/G,/D,/G,/ G,,/G,/D,/G,/ G,,/G,/D,/G,/ | %63
 G,,/F,/D,/F,/!ped! G,,/F,/D,/!ped-up!F,/!ped! G,,/F,/D,/!ped-up!F,/!ped! G,,/F,/D,/!ped-up!F,/ |1 %64
!ped! .C,,.G,,!ped-up!.C,,.G,, .C,,.G,,.C,,.G,, :|2 %65
!ped! .C,,.G,,!ped-up!.C,,.G,, .C,,.G,,.C,,.G,, || %66
 .C,,.G,,.C,,.G,, .C,,.G,,!ped!.[C,,C,].G,,!ped-up! |!mp! .B,,,.G,,.B,,,.G,, .B,,,.G,,.B,,,.G,, | %68
 .B,,,.G,,.B,,,.G,, .B,,,.G,,!ped!.[B,,,B,,].G,,!ped-up! | %69
!mp! .A,,,.A,,.A,,,.A,, .A,,,.A,,!ped!.A,,,.A,,!ped-up! | %70
 .^E,,,.^E,,.E,,,.E,, .E,,,.E,,!ped!.E,,,.E,,!ped-up! | %71
!ped! .[F,,,F,,]/ C/!ped-up!A,/C/!p!!ped! F,/C/A,/C/ F,/C/A,/C/!ped-up! F,/C/A,/C/ | %72
!ped! G,/C/B,/C/!ped-up! G,/C/B,/C/ G,/C/B,/C/ G,/C/B,/C/ | %73
!ped! A,/C/A,/C/!ped-up! A,/C/A,/C/ A,/C/A,/C/ A,/C/A,/C/ | %74
!ped! ^E,/C/E,/C/!ped-up! E,/C/E,/C/ E,/C/E,/C/ E,/C/E,/C/ |!mf!!ped! F, z!ped-up! C4 A,>F, | %76
!ped! F,2!ped-up! ^E,2-!<(! E,E,!<)!!f!!>(!C>!mf!E,!>)! | %77
!ped! G,2!ped-up! F,2-!<(! F,F,!<)!!f!!>(!C>!mf!F,!>)! | %78
!ped! F,F,!ped-up!!<(!=D>F,!ped! F,F,!ped-up!D>F,!<)! | %79
!ped! =G, z!ped-up!!mf!!ped! =D,4!ped-up! B,,>=G,, | %80
!ped! =G,,2!ped-up! F,,2-!<(! F,,F,,!<)!!f!!>(!=D,>!mf!F,,!>)! | %81
!ped! A,,2!ped-up! =G,,2-!<(! G,,G,,!<)!!f!!>(!=D,>!mf!F,,!>)! | %82
!ped! F,,2!ped-up! ^E,,2-!<(! E,,E,,!<)!!f!!>(!C,>!mf!E,,!>)! | %83
!ped! .F,,!ped-up!!mf!F,,A,,F,,!ped! .=D,,!ped-up!!mf!D,,F,,D,, | %84
!ped! ^B,,,4-!ped-up! B,,,B,,,^D,,B,,, | %85
!ped! .C,,!ped-up!!mf!C,,E,,C,,!ped! .A,,,!ped-up!A,,,C,,A,,, | %86
!ped! .F,,,!ped-up!!mf!F,,,A,,,F,,,!ped! .^^F,,,!ped-up!!mf!F,,,^A,,,F,,, | %87
 G,,,/!p!G,,/G,,,/G,,/!ped! G,,,/G,,/G,,,/G,,/ !//-!G,,,2 G,,2!ped-up! | %88
!ped! !//-!G,,,2 G,,2!ped-up!!ped! !//-!G,,,2 G,,2!ped-up! | %89
!ped! !//-!G,,,2 G,,2!ped-up!!ped! !//-!G,,,2 G,,2!ped-up! | %90
!ped! [D,F,]4!ped-up!!ped! [C,E,]4!ped-up! | %91
!ped!{/^B,,G,} !//-!G,,,2 G,,2!ped-up! !//-!G,,,2 G,,2 | !//-!G,,,2 G,,2 !//-!G,,,2 G,,2 | %93
 !//-!G,,,2 G,,2 !//-!G,,,2 G,,2 |!p!!ped! !//-!G,,,2 G,,2!ped-up!!ped! !//-!G,,,2 G,,2!ped-up! | %95
!ped! !//-!G,,,2 G,,2!ped-up!!ped! !//-!G,,,2 G,,2!ped-up! | !//-!G,,,2 G,,2 !//-!G,,,2 G,,2 | %97
!ped! !//-!G,,,2 G,,2!ped-up!!ped! !//-!G,,,2 G,,2!ped-up! | %98
!ped!!<(! !//-!G,,,2 G,,2!ped-up!!ped! !//-!G,,,2 G,,2!ped-up! | %99
!ped! !//-!G,,,2!<)! G,,2!ped-up!!ped!!>(! !//-!A,,,2!p! A,,2!ped-up!!>)! | %100
!p!!ped! [F,,,F,,]8!ped-up! |!pp!!ped! [G,,,G,,]8!ped-up! |!mp! .C,,.G,,.C,,.G,, .C,,.G,,.C,,.G,, | %103
 .C,,.G,,.C,,.G,, .C,,.G,,!ped!.[C,,C,].G,,!ped-up! |!mp! .^B,,,.G,,.B,,,.G,, .B,,,.G,,.B,,,.G,, | %105
 .^B,,,.G,,.B,,,.G,, .B,,,.G,,!ped!.[B,,,^B,,].G,,!ped-up! | %106
!mp! .B,,,.G,,.B,,,.G,, .B,,,.G,,.B,,,.G,, | %107
 .B,,,.G,,.B,,,.G,, .B,,,.G,,!ped!.[B,,,B,,].G,,!ped-up! | %108
!mp! .A,,,.A,,.A,,,.A,, .A,,,.A,,.A,,,.A,, | %109
!mp! .A,,,.A,,.A,,,.A,, .A,,,.A,,!ped!.A,,,.A,,!ped-up! | [G,,,G,,] ^B,B,C DEFD | FEAG FEDC | %112
 ^B,B,B,C DEFD | FE!ped!AG!ped-up! FEDC | .[G,^B,].[G,C].[G,B,].[G,C] .[G,B,].[G,C].[G,B,].[G,C] | %115
 .[G,^B,]2!ped! !fermata![G,,,G,,]6!ped-up! | %116
!p! C,/G,/E,/G,/!ped! C,/G,/E,/G,/ C,/G,/E,/G,/!ped-up! C,/G,/E,/G,/ | %117
!ped! D,/G,/F,/G,/!ped-up! D,/G,/F,/G,/ D,/G,/F,/G,/ D,/G,/F,/G,/ | %118
!ped! E,/G,/E,/G,/!ped-up! E,/G,/E,/G,/ E,/G,/E,/G,/ E,/G,/E,/G,/ | %119
!ped! ^B,,/G,/B,,/G,/!ped-up! B,,/G,/B,,/G,/ B,,/G,/B,,/G,/ B,,/G,/B,,/G,/ | %120
"^cresc." C,/G,/!ped!!<(!E,/G,/ C,/G,/E,/G,/ C,/!ped-up!G,/E,/G,/ C,/G,/E,/G,/ | %121
 D,/G,/!ped!F,/G,/ D,/G,/F,/G,/ D,/!ped-up!G,/F,/G,/ D,/G,/F,/G,/ | %122
 E,/G,/!ped!E,/G,/ E,/G,/E,/G,/ E,/!ped-up!G,/E,/G,/ E,/G,/E,/G,/ | %123
 ^B,,/G,/!ped!B,,/G,/ B,,/G,/B,,/G,/ B,,/!ped-up!G,/B,,/G,/ B,,/G,/B,,/G,/!<)! | %124
!f!!ped! =B,,/G,/C,/G,/ B,,/G,/C,/!ped-up!G,/!ped! A,,/F,/C,/F,/ A,,/F,/C,/!ped-up!F,/ | %125
!ped! A,,/F,/B,,/F,/!ped-up!!ped! G,,/E,/B,,/E,/ G,,/E,/B,,/E,/ G,,/E,/B,,/E,/!ped-up! | %126
!ped! =G,,/E,/A,,/E,/ G,,/E,/A,,/!ped-up!E,/!ped! F,,/=D,/A,,/D,/ F,,/D,/A,,/!ped-up!D,/ | %127
!ped! F,,/^D,/G,,/D,/!ped-up!!ped! E,,/C,/G,,/C,/ E,,/C,/G,,/C,/ E,,/C,/G,,/C,/!ped-up! | %128
!ped! [F,,A,,=D,F,]4- [F,,A,,D,F,]!ped-up! z z2 | [F,A,=D]2 z2 [F,A,D]2 z2 | %130
 [F,A,=D]2 [F,A,D]2 [F,A,D]2 [F,A,D]2 | %131
!ped! G,/E/C/E/ G,/E/C/E/!ped-up!!ped! G,/F/^B,/F/ G,/F/B,/F/!ped-up! | %132
 .[A,CE]2!ped! [F,,,A,,,=D,,F,,]2- [F,,,A,,,D,,F,,]/!ped-up! z/ z z2 | %133
 z2 .[F,,A,,=D,]2 z2 .[F,,A,,D,]2 | z .[F,,A,,=D,]z.[F,,A,,D,]z.[F,,A,,D,]z.[F,,A,,D,] | %135
!mf!!ped! F,,/=D,/A,,/D,/ F,,/D,/A,,/!ped-up!D,/!ped! ^^F,,/E,/^A,,/E,/ F,,/E,/A,,/!ped-up!E,/ | %136
!ped! G,,/E,/C,/E,/ G,,/E,/C,/!ped-up!E,/!ped! G,,,/G,,/^^F,,/G,,/ F,,/G,,/F,,/!ped-up!G,,/ | %137
 !>!C,,!p! .C,.C,.C, .C,.C,.D,.E, | [G,,F,] .[F,G,].[F,G,].[F,G,] .[F,G,].[F,G,].[E,G,].[D,G,] | %139
 [C,,C,] .C,.C,.C, .C,.C,.D,.E, | [G,,F,] .[F,G,].[F,G,].[F,G,] .[F,G,].[F,G,].[E,G,].[D,G,] | %141
 .[C,,C,] .[C,E,]!ped![C,E,][E,G,]!ped-up!!mf! .F,,!mp! .[C,F,]!ped![C,F,][F,A,]!ped-up! | %142
!mf! .G,,!mp! .[C,E,]!ped![C,E,][E,G,]!ped-up!!mf! .G,,!mp! .[^B,,D,]!ped![B,,D,][D,G,]!ped-up! | %143
 [C,,C,] .[C,G,].[C,G,].[C,G,] .[C,G,].[C,G,].[D,G,].[E,G,] | %144
 [G,,F,G,] .[G,F].[G,F].[G,F] .[G,F].[G,F].[G,E].[G,D] | %145
 [C,,C,] .[C,G,].[C,G,].[C,G,] .[C,G,].[C,G,].[D,G,].[E,G,] | %146
 [G,,F,G,] .[G,F].[G,F].[G,F] .[G,F].[G,F].[G,E].[G,D] | %147
[K:bass] .[C,C][K:treble] .[CE]!ped![CE][EG]!ped-up![K:bass] .F,[K:treble] .[CF]!ped![CF][FA]!ped-up! | %148
[K:bass] .G,[K:treble] .[CE]!ped![CE][EG]!ped-up![K:bass] .F,[K:treble] .[^B,D]!ped![B,D][DG]!ped-up! | %149
[K:bass] .E, .[G,C]!ped![G,C][CE]!ped-up! .F,, .[F,A,]!ped![F,A,][A,=D]!ped-up! | %150
 .G,, .[E,G,]!ped![E,G,][G,C]!ped-up! .G,, .[^D,F,]!ped![D,F,][F,^B,]!ped-up! | %151
!ped! C,,/!p!C,/G,,/C,/!ped-up!!ped! C,,/C,/G,,/C,/ C,,/C,/G,,/C,/ C,,/C,/G,,/C,/!ped-up! | %152
!ped! C,,/D,/G,,/D,/ C,,/D,/G,,/D,/ C,,/D,/G,,/D,/ C,,/D,/G,,/D,/!ped-up! | %153
!ped! C,,/C,/G,,/C,/ C,,/C,/G,,/C,/ C,,/C,/G,,/C,/ C,,/C,/G,,/C,/!ped-up! | %154
!ped! C,,/D,/G,,/D,/ C,,/D,/G,,/D,/ C,,/D,/G,,/D,/ C,,/D,/G,,/D,/!ped-up! | %155
!ped! C,,/C,/G,,/C,/ C,,/C,/G,,/C,/!ped-up!!ped! C,,/D,/G,,/D,/ C,,/D,/G,,/D,/!ped-up! | %156
!ped! C,,/C,/G,,/C,/ C,,/C,/G,,/C,/!ped-up!!ped! C,,/D,/G,,/D,/ C,,/D,/G,,/D,/!ped-up! | %157
 C,,/C,/G,,/C,/ C,,/C,/G,,/C,/ C,,/C,/G,,/C,/ C,,/C,/G,,/C,/ | %158
 B,,,/B,,/C,,/B,,/ B,,,/B,,/C,,/B,,/ B,,,/B,,/C,,/B,,/ B,,,/B,,/C,,/B,,/ | %159
!ped! .[A,,,A,,].F,,!ped-up!.A,,,.F,, .A,,,.F,,.A,,,.F,, | %160
 .A,,,.F,,.A,,,.F,, .A,,,.F,,!ped!.[A,,,A,,].F,,!ped-up! | .G,,,.E,,.G,,,.E,, .G,,,.E,,.G,,,.E,, | %162
 .G,,,.E,,.G,,,.E,, .G,,,.E,,!ped!.[G,,,G,,].E,,!ped-up! | %163
"^molto forte"!ped! ^^F,,,2- F,,, F,,,- [F,,,A,,,C,,E,,^^F,,]2- [F,,,A,,,C,,E,,F,,] F,,- | %164
 [F,,A,,C,E,^^F,]2 !fermata![F,^A,CE]6!ped-up! | %165
"^(sempre molto forte)"!ped! ^F,,,2- F,,, F,,,- [F,,,A,,,B,,,D,,F,,]2- [F,,,A,,,B,,,D,,F,,] F,,- | %166
 [F,,A,,B,,D,F,]2 !fermata![F,A,^B,D]6!ped-up! |!p!!ped! .C,!ped-up! z!ped! G,4!ped-up! E,>C, | %168
!ped! C,2!ped-up! ^B,,2- B,,!<(!B,,!<)!!mf!!>(!G,>!mp!B,,!>)! | %169
!ped! D,2!ped-up! C,2- C,!<(!C,!<)!!mf!!>(!G,>!mp!C,!>)! | %170
!ped! E,2!ped-up! D,2- D,!<(!D,!<)!!mf!!>(!G,>!mp!D,!>)! | %171
!p!!ped! E,/G,/E,/!ped-up!G,/!ped! E,/G,/E,/G,/ E,/G,/E,/G,/!ped-up! E,/G,/E,/G,/ | %172
!ped! F,/G,/F,/G,/!ped-up! F,/G,/F,/G,/ F,/G,/F,/G,/ F,/G,/F,/G,/ | %173
!ped! E,/G,/E,/G,/!ped-up! E,/G,/E,/G,/ E,/G,/E,/G,/ E,/G,/E,/G,/ | %174
!ped! ^B,,/G,/B,,/G,/!ped-up! B,,/G,/B,,/G,/ B,,/G,/B,,/G,/ B,,/G,/B,,/G,/ | %175
!ped!!<(! C,/G,/C,/!ped-up!G,/ C,/G,/C,/G,/!ped! =B,,/C,/B,,/!ped-up!C,/ B,,/C,/B,,/C,/ | %176
!ped! A,,/C,/A,,/!ped-up!C,/ A,,/C,/A,,/C,/!ped! ^E,,/C,/E,,/!ped-up!C,/ E,,/C,/E,,/C,/!<)! | %177
!f!!ped! x4 x2 (3A,F,C, | A,/F,/C,/A,,/ C,/F,/A,/C/ x4!ped-up! |!ped! x4 x2 (3A,F,=D, | %180
 A,/F,/=D,/A,,/ D,/F,/A,/=D/ x4!ped-up! |!ped! !>![^^F,,,C,,^^F,,]8- | [F,,,C,,F,,]8!ped-up! | %183
!ped! [G,,,C,,G,,]8- | x2 !>!G,/E/C/G,/ !>!E,/C/G,/E,/ !>!C,/G,/E,/C,/!ped-up! | %185
 G,,/A,,/^A,,/B,,/ ^B,,/C,/^^C,/D,/ E,/^E,/F,/^^F,/ G,/=A,/^A,/=B,/ | x8 |!ped! [G,^B,F]8!ped-up! | %188
"^ad lib. con fantasia" x8 | x8 | x8 | x8 x |!p!!ped! ^^F,,,8!ped-up! |!ped! G,,,8!ped-up! | %194
!p!!ped! C,,/C,/G,,/C,/ C,,/C,/G,,/C,/ C,,/C,/G,,/C,/ C,,/C,/G,,/C,/!ped-up! | %195
!ped! C,,/D,/G,,/D,/ C,,/D,/G,,/D,/ C,,/D,/G,,/D,/ C,,/D,/G,,/D,/!ped-up! | %196
!ped! C,,/C,/G,,/C,/ C,,/C,/G,,/C,/ C,,/C,/G,,/C,/ C,,/C,/G,,/C,/!ped-up! | %197
!ped! C,,/D,/G,,/D,/ C,,/D,/G,,/D,/ C,,/D,/G,,/D,/ C,,/D,/G,,/D,/!ped-up! | %198
!ped! C,,/C,/G,,/C,/ C,,/C,/G,,/C,/!<(! C,,/D,/G,,/D,/ C,,/D,/G,,/D,/!ped-up! | %199
!ped! C,,/C,/G,,/C,/ C,,/C,/G,,/C,/ C,,/D,/G,,/D,/ C,,/D,/G,,/D,/!<)!!ped-up! | %200
!f!!ped! [C,,G,,C,]/ E,/G,/C/ E/G,/C/E/[K:treble] G/C/E/G/ c/E/G/c/ | %201
 e/c/G/E/ c/G/E/C/[K:bass] G/E/C/G,/ E/C/G,/E,/ | %202
 C/G,/E,/C,/ G,/E,/C,/G,,/ E,/C,/G,,/E,,/ C,/G,,/E,,/G,,/!ped-up! | C,2 z2 .[C,,E,,G,,C,]2 z2 | %204
 .[C,,E,,G,,C,]2 z2 z4 |] %205
V:3
 x8 |: x8 | x8 | x8 | x8 | x8 | x8 | x8 | x G,3- G,4- | G,8 | G,8- | G,8 | x8 | x8 | x8 | x8 | x8 | %17
 x8 | x8 | x8 | x8 | x8 | x8 | x8 | x8 | x8 | x8 | x8 | x8 | x8 | x8 | x8 | x8 |[K:treble] x8 | %34
 x8 | x8 | x2[K:bass] x6 | x8 | x8 | x8 | x8 | x8 | x8 | x8 | x8 | x8 | x8 | x8 | x8 | x8 | x8 | %51
 x8 | x8 | x8 | x[K:treble] x3[K:bass] x[K:treble] x3 | %55
[K:bass] x[K:treble] x3[K:bass] x[K:treble] x3 |[K:bass] x8 | x8 | x8 | x8 | x8 | x8 | x8 | x8 |1 %64
 x8 :|2 x8 || x8 | x8 | x8 | x8 | x8 | x8 | x8 | x8 | x8 | x8 | x8 | x8 | x8 | x8 | x8 | x8 | x8 | %83
 x8 | x8 | x8 | x8 | x8 | x8 | x8 | !//-!G,,,2 G,,2 !//-!G,,,2 G,,2 | x8 | x8 | x8 | x8 | x8 | x8 | %97
 x8 | x8 | x8 | x8 | x8 | x8 | x8 | x8 | x8 | x8 | x8 | x8 | x8 | x G,3- G,4- | G,8 | G,8- | G,8 | %114
 x8 | x8 | x8 | x8 | x8 | x8 | x8 | x8 | x8 | x8 | x8 | x8 | x8 | x8 | x8 | x8 | x8 | x8 | x8 | %133
 x8 | x8 | x8 | x8 | x8 | x8 | x8 | x8 | x8 | x8 | x8 | x8 | x8 | x8 | %147
[K:bass] x[K:treble] x3[K:bass] x[K:treble] x3 |[K:bass] x[K:treble] x3[K:bass] x[K:treble] x3 | %149
[K:bass] x8 | x8 | x8 | x8 | x8 | x8 | x8 | x8 | x8 | x8 | x8 | x8 | x8 | x8 | %163
 x2 x x/4 ^A,,,3/4- x2 x x/4 ^A,,3/4- | x2 x2 x4 | x2 x x/4 =A,,,3/4- x2 x x/4 A,,3/4- | x2 x2 x4 | %167
 x8 | x8 | x8 | x8 | x8 | x8 | x8 | x8 | x8 | x8 | !>![F,,,C,,F,,]8- | [F,,,C,,F,,]8 | %179
 !>![F,,,D,,F,,]8- | [F,,,D,,F,,]8 | x8 | x8 | x8 | [G,,,C,,G,,]8 | x8 | x8 | x8 | x8 | x8 | x8 | %191
 x9 | x8 | x8 | x8 | x8 | x8 | x8 | x8 | x8 | x4[K:treble] x4 | x4[K:bass] x4 | x8 | C,,2 z2 x4 | %204
 x8 |] %205
V:4
 x6[K:treble] x2 |: x8 |[K:bass] x6[K:treble] x2 | x8 |[K:bass] x4[K:treble] x4 | x8 | %6
[K:bass] x2[K:treble] x6 |[K:bass] x2[K:treble] x6 | x8 | x8 | x8 | x8 | x8 | x8 | %14
[K:bass] x6[K:treble] x2 | x8 |[K:bass] x4[K:treble] x4 | x8 |[K:bass] x4[K:treble] x4 | x8 | x8 | %21
 x8 | x8 | x8 | x8 | x8 | x8 | x8 | x8 | x8 | x8 | x8 | x8 | x8 | x8 | x8 | x8 | x8 | x8 | x8 | %40
 x8 | x8 | x8 | x8 | x8 | x8 | x8 | x8 | x8 | x8 | x8 | x8 | x8 | x8 | x8 | x8 | x8 | x8 | x8 | %59
 x8 | x8 | x8 | x8 | x8 |1[K:bass] x6[K:treble] x2 :|2[K:bass] x4[K:treble] x4 || x8 | %67
[K:bass] x4[K:treble] x4 | x8 |[K:bass] x2[K:treble] x6 |[K:bass] x2[K:treble] x6 | x8 | x8 | x8 | %74
 x8 | x8 | x8 | x8 | x8 | x8 | x8 | x8 | x8 | x8 | x8 | x8 | x8 | x8 | [A,C]4 [G,B,]4 | %89
 [F,A,]4 [E,G,]4 | x8 | x8 | x8 | x8 | x8 | x8 | x8 | x8 | x8 | x8 | x8 | x8 | %102
[K:bass] x6[K:treble] x2 | x8 |[K:bass] x6[K:treble] x2 | x8 |[K:bass] x4[K:treble] x4 | x8 | %108
[K:bass] x2[K:treble] x6 |[K:bass] x2[K:treble] x6 | x8 | x8 | x8 | x8 | x8 | x8 | x8 | x8 | x8 | %119
 x8 | x8 | x8 | x8 | x8 | x8 | x8 | x8 | x8 | x8 | x8 | x8 | x8 | x2[K:bass] x5/2[K:treble] x7/2 | %133
 x8 | x8 | x8 | x4[K:bass] x4 | x[K:treble] x7 | x8 | x8 | x8 | x8 | x8 | x8 | x8 | x8 | x8 | x8 | %148
 x8 | x8 | x8 | x8 | x8 | x8 | x8 | x8 | x8 |[K:bass] x8 | x8 | x4[K:treble] x4 | x8 | %161
[K:bass] x4[K:treble] x4 | x8 |[K:bass] x x/4 E,3/4- x2 x[K:treble] x/4 E3/4- x2 | %164
 x x/4 e3/4- x2 x4 |[K:bass] x x/4 ^B,,3/4- x2 x[K:treble] x/4 ^B,3/4- x2 | x/ A x/ x2 x4 | x8 | %168
 x8 | x8 | x8 | x8 | x8 | x8 | x8 | x8 | x8 | x8 | x8 | x8 | x8 | x8 | x8 | x8 | x8 | x8 | x8 | %187
 x8 | x8 | x8 | x2[K:bass] x6 | x9 | x8 | x8 | x6[K:treble] x2 | x8 | x8 | x8 | x8 | x8 | x8 | x8 | %202
 x8 | x8 | x8 |] %205
V:5
 x6[K:treble] x2 |: x8 |[K:bass] x6[K:treble] x2 | x8 |[K:bass] x4[K:treble] x4 | x8 | %6
[K:bass] x2[K:treble] x6 |[K:bass] x2[K:treble] x6 | x8 | x8 | x8 | x8 | x8 | x8 | %14
[K:bass] x6[K:treble] x2 | x8 |[K:bass] x4[K:treble] x4 | x8 |[K:bass] x4[K:treble] x4 | x8 | x8 | %21
 x8 | x8 | x8 | x8 | x8 | x8 | x8 | x8 | x8 | x8 | x8 | x8 | x8 | x8 | x8 | x8 | x8 | x8 | x8 | %40
 x8 | x8 | x8 | x8 | x8 | x8 | x8 | x8 | x8 | x8 | x8 | x8 | x8 | x8 | x8 | x8 | x8 | x8 | x8 | %59
 x8 | x8 | x8 | x8 | x8 |1[K:bass] x6[K:treble] x2 :|2[K:bass] x4[K:treble] x4 || x8 | %67
[K:bass] x4[K:treble] x4 | x8 |[K:bass] x2[K:treble] x6 |[K:bass] x2[K:treble] x6 | x8 | x8 | x8 | %74
 x8 | x8 | x8 | x8 | x8 | x8 | x8 | x8 | x8 | x8 | x8 | x8 | x8 | x8 | x8 | x8 | x8 | x8 | x8 | %93
 x8 | x8 | x8 | x8 | x8 | x8 | x8 | x8 | x8 |[K:bass] x6[K:treble] x2 | x8 | %104
[K:bass] x6[K:treble] x2 | x8 |[K:bass] x4[K:treble] x4 | x8 |[K:bass] x2[K:treble] x6 | %109
[K:bass] x2[K:treble] x6 | x8 | x8 | x8 | x8 | x8 | x8 | x8 | x8 | x8 | x8 | x8 | x8 | x8 | x8 | %124
 x8 | x8 | x8 | x8 | x8 | x8 | x8 | x8 | x2[K:bass] x5/2[K:treble] x7/2 | x8 | x8 | x8 | %136
 x4[K:bass] x4 | x[K:treble] x7 | x8 | x8 | x8 | x8 | x8 | x8 | x8 | x8 | x8 | x8 | x8 | x8 | x8 | %151
 x8 | x8 | x8 | x8 | x8 | x8 |[K:bass] x8 | x8 | x4[K:treble] x4 | x8 |[K:bass] x4[K:treble] x4 | %162
 x8 |[K:bass] x x/ ^^F,/- x2 x[K:treble] x/ ^^F/- x2 | x x/ ^^f/- x2 x4 | %165
[K:bass] x x/ D,/- x2 x[K:treble] x/ D/- x2 | x/ x/ ^B x2 x4 | x8 | x8 | x8 | x8 | x8 | x8 | x8 | %174
 x8 | x8 | x8 | x8 | x8 | x8 | x8 | x8 | x8 | x8 | x8 | x8 | x8 | x8 | x8 | x8 | x2[K:bass] x6 | %191
 x9 | x8 | x8 | x6[K:treble] x2 | x8 | x8 | x8 | x8 | x8 | x8 | x8 | x8 | x8 | x8 |] %205
V:6
 x6[K:treble] x2 |: x8 |[K:bass] x6[K:treble] x2 | x8 |[K:bass] x4[K:treble] x4 | x8 | %6
[K:bass] x2[K:treble] x6 |[K:bass] x2[K:treble] x6 | x8 | x8 | x8 | x8 | x8 | x8 | %14
[K:bass] x6[K:treble] x2 | x8 |[K:bass] x4[K:treble] x4 | x8 |[K:bass] x4[K:treble] x4 | x8 | x8 | %21
 x8 | x8 | x8 | x8 | x8 | x8 | x8 | x8 | x8 | x8 | x8 | x8 | x8 | x8 | x8 | x8 | x8 | x8 | x8 | %40
 x8 | x8 | x8 | x8 | x8 | x8 | x8 | x8 | x8 | x8 | x8 | x8 | x8 | x8 | x8 | x8 | x8 | x8 | x8 | %59
 x8 | x8 | x8 | x8 | x8 |1[K:bass] x6[K:treble] x2 :|2[K:bass] x4[K:treble] x4 || x8 | %67
[K:bass] x4[K:treble] x4 | x8 |[K:bass] x2[K:treble] x6 |[K:bass] x2[K:treble] x6 | x8 | x8 | x8 | %74
 x8 | x8 | x8 | x8 | x8 | x8 | x8 | x8 | x8 | x8 | x8 | x8 | x8 | x8 | x8 | x8 | x8 | x8 | x8 | %93
 x8 | x8 | x8 | x8 | x8 | x8 | x8 | x8 | x8 |[K:bass] x6[K:treble] x2 | x8 | %104
[K:bass] x6[K:treble] x2 | x8 |[K:bass] x4[K:treble] x4 | x8 |[K:bass] x2[K:treble] x6 | %109
[K:bass] x2[K:treble] x6 | x8 | x8 | x8 | x8 | x8 | x8 | x8 | x8 | x8 | x8 | x8 | x8 | x8 | x8 | %124
 x8 | x8 | x8 | x8 | x8 | x8 | x8 | x8 | x2[K:bass] x5/2[K:treble] x7/2 | x8 | x8 | x8 | %136
 x4[K:bass] x4 | x[K:treble] x7 | x8 | x8 | x8 | x8 | x8 | x8 | x8 | x8 | x8 | x8 | x8 | x8 | x8 | %151
 x8 | x8 | x8 | x8 | x8 | x8 |[K:bass] x8 | x8 | x4[K:treble] x4 | x8 |[K:bass] x4[K:treble] x4 | %162
 x8 |[K:bass] x C,/4E,/4^^F,/4^A,/4- x2 x[K:treble] C/4E/4^^F/4^A/4- x2 | %164
 x c/4e/4^^f/4^a/4- x2 x4 |[K:bass] x =A,,/4^B,,/4D,/4F,/4- x2 x[K:treble] A,/4^B,/4D/4F/4- x2 | %166
 x/ x/ x x2 x4 | x8 | x8 | x8 | x8 | x8 | x8 | x8 | x8 | x8 | x8 | x8 | x8 | x8 | x8 | x8 | x8 | %183
 x8 | x8 | x8 | x8 | x8 | x8 | x8 | x2[K:bass] x6 | x9 | x8 | x8 | x6[K:treble] x2 | x8 | x8 | x8 | %198
 x8 | x8 | x8 | x8 | x8 | x8 | x8 |] %205
V:7
 x8 |: x8 | x8 | x8 | x8 | x8 | x8 | x8 | x8 | x8 | x8 | x8 | x8 | x8 | x8 | x8 | x8 | x8 | x8 | %19
 x8 | x8 | x8 | x8 | x8 | x8 | x8 | x8 | x8 | x8 | x8 | x8 | x8 | x8 |[K:treble] x8 | x8 | x8 | %36
 x2[K:bass] x6 | x8 | x8 | x8 | x8 | x8 | x8 | x8 | x8 | x8 | x8 | x8 | x8 | x8 | x8 | x8 | x8 | %53
 x8 | x[K:treble] x3[K:bass] x[K:treble] x3 |[K:bass] x[K:treble] x3[K:bass] x[K:treble] x3 | %56
[K:bass] x8 | x8 | x8 | x8 | x8 | x8 | x8 | x8 |1 x8 :|2 x8 || x8 | x8 | x8 | x8 | x8 | x8 | x8 | %73
 x8 | x8 | x8 | x8 | x8 | x8 | x8 | x8 | x8 | x8 | x8 | x8 | x8 | x8 | x8 | x8 | x8 | x8 | x8 | %92
 x8 | x8 | x8 | x8 | x8 | x8 | x8 | x8 | x8 | x8 | x8 | x8 | x8 | x8 | x8 | x8 | x8 | x8 | x8 | %111
 x8 | x8 | x8 | x8 | x8 | x8 | x8 | x8 | x8 | x8 | x8 | x8 | x8 | x8 | x8 | x8 | x8 | x8 | x8 | %130
 x8 | x8 | x8 | x8 | x8 | x8 | x8 | x8 | x8 | x8 | x8 | x8 | x8 | x8 | x8 | x8 | x8 | %147
[K:bass] x[K:treble] x3[K:bass] x[K:treble] x3 |[K:bass] x[K:treble] x3[K:bass] x[K:treble] x3 | %149
[K:bass] x8 | x8 | x8 | x8 | x8 | x8 | x8 | x8 | x8 | x8 | x8 | x8 | x8 | x8 | %163
 x2 x x/ C,,/- x2 x x/ C,/- | x2 x2 x4 | x2 x x/ ^B,,,/- x2 x x/ ^B,,/- | x2 x2 x4 | x8 | x8 | x8 | %170
 x8 | x8 | x8 | x8 | x8 | x8 | x8 | x8 | x8 | x8 | x8 | x8 | x8 | x8 | x8 | x8 | x8 | x8 | x8 | %189
 x8 | x8 | x9 | x8 | x8 | x8 | x8 | x8 | x8 | x8 | x8 | x4[K:treble] x4 | x4[K:bass] x4 | x8 | x8 | %204
 x8 |] %205
V:8
 x8 |: x8 | x8 | x8 | x8 | x8 | x8 | x8 | x8 | x8 | x8 | x8 | x8 | x8 | x8 | x8 | x8 | x8 | x8 | %19
 x8 | x8 | x8 | x8 | x8 | x8 | x8 | x8 | x8 | x8 | x8 | x8 | x8 | x8 |[K:treble] x8 | x8 | x8 | %36
 x2[K:bass] x6 | x8 | x8 | x8 | x8 | x8 | x8 | x8 | x8 | x8 | x8 | x8 | x8 | x8 | x8 | x8 | x8 | %53
 x8 | x[K:treble] x3[K:bass] x[K:treble] x3 |[K:bass] x[K:treble] x3[K:bass] x[K:treble] x3 | %56
[K:bass] x8 | x8 | x8 | x8 | x8 | x8 | x8 | x8 |1 x8 :|2 x8 || x8 | x8 | x8 | x8 | x8 | x8 | x8 | %73
 x8 | x8 | x8 | x8 | x8 | x8 | x8 | x8 | x8 | x8 | x8 | x8 | x8 | x8 | x8 | x8 | x8 | x8 | x8 | %92
 x8 | x8 | x8 | x8 | x8 | x8 | x8 | x8 | x8 | x8 | x8 | x8 | x8 | x8 | x8 | x8 | x8 | x8 | x8 | %111
 x8 | x8 | x8 | x8 | x8 | x8 | x8 | x8 | x8 | x8 | x8 | x8 | x8 | x8 | x8 | x8 | x8 | x8 | x8 | %130
 x8 | x8 | x8 | x8 | x8 | x8 | x8 | x8 | x8 | x8 | x8 | x8 | x8 | x8 | x8 | x8 | x8 | %147
[K:bass] x[K:treble] x3[K:bass] x[K:treble] x3 |[K:bass] x[K:treble] x3[K:bass] x[K:treble] x3 | %149
[K:bass] x8 | x8 | x8 | x8 | x8 | x8 | x8 | x8 | x8 | x8 | x8 | x8 | x8 | x8 | %163
 x2 x ^^F,,,/4^A,,,/4C,,/4E,,/4- x2 x ^^F,,/4^A,,/4C,/4E,/4- | x2 x2 x4 | %165
 x2 x F,,,/4A,,,/4^B,,,/4D,,/4- x2 x F,,/4A,,/4^B,,/4D,/4- | x2 x2 x4 | x8 | x8 | x8 | x8 | x8 | %172
 x8 | x8 | x8 | x8 | x8 | x8 | x8 | x8 | x8 | x8 | x8 | x8 | x8 | x8 | x8 | x8 | x8 | x8 | x8 | %191
 x9 | x8 | x8 | x8 | x8 | x8 | x8 | x8 | x8 | x4[K:treble] x4 | x4[K:bass] x4 | x8 | x8 | x8 |] %205

